X:1
T:Title
%%score { ( 1 2 ) | ( 3 4 ) }
L:1/8
M:4/4
K:F
V:1 treble nm="Grand Piano"
V:2 treble 
V:3 bass 
V:4 bass 
V:1
 z4 z2[Q:1/4=100] z z/ G/ | A2 A2 A2 B>A | [EG]2 [EG]2 [EG]2 [CE]>[DF] | %3
 [EG]2 [EG]2 [EG]2 [FA]>[EG] | F2 F2 F2 A>B | c2 c>c c2 d>c | B2 B2 B2 [EG]>A | %7
 [CGB]2 [CGB]2 [CGB]2 [CFA]>[CEG] |[M:9/8] [CFA]2 [F=B]- [FB] [Ec]2- [Ec]c>c | %9
[M:4/4] d2 d2 d2 f>d | c2 c2 c2 F>G | A2 A2 c2 B>A |[M:3/4] G2 G2 [CEG]2 |[M:1/4] [CFA]>[CGB] | %14
[M:4/4] [FAc]2 [EGc]2 [FAc]2 A>c | d2 d2 d2 [Be]>[Be] | [Af]2 [ce][Bd] [Ac]2 [Ac]>[FA] | %17
[M:3/4] [EG]2 [DG]2 [EG]2 |[M:1/4] [EG]>[FA] |[M:4/4] [GB]2 [GB]2 [GB]2 [Ac]>B |[M:3/4] A2 A2 A2 | %21
[M:1/4] [EG]>[FA] |[M:4/4] [GB]2 [GB]2 [GB]2 [Ac]>B |[M:3/4] A2 A2 A2 |[M:1/4] A>B |[M:4/4] c4 d4 | %26
 c6 F>G | A4 [EG]4 |[M:3/4] F6 |] %29
V:2
 z4 z2 F2 | x8 | x8 | x8 | x8 | x8 | x8 | x8 |[M:9/8] x9 |[M:4/4] x8 | x8 | x8 |[M:3/4] x6 | %13
[M:1/4] x2 |[M:4/4] x8 | x8 | x8 |[M:3/4] x6 |[M:1/4] x2 |[M:4/4] x8 |[M:3/4] x6 |[M:1/4] x2 | %22
[M:4/4] x8 |[M:3/4] x6 |[M:1/4] x2 |[M:4/4] x8 | x8 | x8 |[M:3/4] x6 |] %29
V:3
 z4 z2 [F,A,]>[F,B,] | [F,CF]2 [F,CF]2 [F,CF]2 [F,DF]>[F,CF] | [C,C]2 [C,C]2 [C,C]2 [C,G,]2 | %3
 [C,C]2 [C,C]2 [C,C]2 [C,C]>[C,B,] | z4 z2 F2 | [F,A,F]2 [F,A,F]>[F,A,F] [A,CF]2 [B,F]>[A,CF] | %6
 [G,CE]2 [G,CE]2 [G,CE]2 z z/ F/ | C,2 G,2 E,2 C,>C, | %8
[M:9/8] F,2 G,- G, [C,G,]2- [C,G,][K:treble][F,A,F]>[F,A,F] | %9
[M:4/4] [B,F]2 [B,F]2 [B,F]2 [B,DF]>[B,F] | [A,CF]2 [G,B,F]2[K:bass] [F,A,F]2 [F,A,]>[F,B,F] | %11
 [F,CF]2 [F,CF]2[K:treble] [A,CF]2 [G,CE]>[F,CF] |[M:3/4] [G,CE]2 [G,=B,D]2[K:bass] C,2 | %13
[M:1/4] F,>F, |[M:4/4] F,2 C,2 F,2[K:treble] [F,CF]>[F,A,F] | %15
 [B,F]2 [A,C^F]2 [G,B,G]2[K:bass] [C,C]>[C,C] | [F,C]2 [F,E]2 [F,F]2 [F,F]>[F,C] | %17
[M:3/4] [C,C]2 [G,=B,]2 [C,C]2 |[M:1/4] [C,C]2 |[M:4/4] [C,C]2 [C,C]2 [C,C]2 z z/[K:treble] G/ | %20
[M:3/4] [F,CF]2[K:bass] [F,CF]2 [F,CF]2 |[M:1/4] [C,C]2 | %22
[M:4/4] [C,C]2 [C,C]2 [C,C]2 z z/[K:treble] G/ |[M:3/4] [F,CF]2 [F,CF]2 [F,CF]2 | %24
[M:1/4] [F,F]>[F,G,F] |[M:4/4] [F,A,F]4 [F,B,F]4 | [F,A,F]6 [A,C]>[B,DF] | [CF]4[K:bass] [C,B,]4 | %28
[M:3/4] [F,A,]6 |] %29
V:4
 x8 | x8 | x8 | x8 | [F,A,]2 [F,B,D]2 [F,A,C]2 F,>G, | x8 | z4 z2 [C,C]2 | x8 | %8
[M:9/8] x7[K:treble] x2 |[M:4/4] x8 | x4[K:bass] x4 | x4[K:treble] x4 |[M:3/4] x4[K:bass] x2 | %13
[M:1/4] x2 |[M:4/4] x6[K:treble] x2 | x6[K:bass] x2 | x8 |[M:3/4] x6 |[M:1/4] x2 | %19
[M:4/4] z4 z2 [C,C]2[K:treble] |[M:3/4] x2[K:bass] x4 |[M:1/4] x2 |[M:4/4] z4 z2 [C,C]2[K:treble] | %23
[M:3/4] x6 |[M:1/4] x2 |[M:4/4] x8 | x8 | x4[K:bass] x4 |[M:3/4] x6 |] %29

